X:1
T:Title
%%score { 1 | 2 }
L:1/8
Q:1/4=100
M:4/4
K:C
V:1 treble nm="Grand Piano"
V:2 bass 
V:1
 [Ec]2 [Fc]2 [Ec]2 [FA]2 | [EG]>[FA] [EG]>[FA] [EG]2 [CE]2 | [DF]2 [CE]2 [B,D]2 A2 | G2 F2 E4 | %4
w: C.~Austin~Miles * * *||||
 A2 A2 c2 A2 | [EG]>[FA] [EG]>[FA] [EG]2 [Gc]2 | [GB]2 G2 D2 A2 |[M:3/4] G6 |[M:1/4] G2 | %9
w: |||||
[M:4/4] [Ec]2 [Ec]>[Ec] [Fc]2 [_Ec]2 | [Ec]2 [EG]2 z2 [EG]2 | d2 d>d [^Fd]2 [Fd]2 | d2 G2 z2 G>G | %13
w: ||||
 [Ec]3 [Ec] [Ec]2 [GB]2 | [GB]2 A2 ^G2 A2 | [^Fd]4 [Fd]4 | d6 G2 | [Ec]2 [Ec]>[Ec] [Fc]2 [_Ec]2 | %18
w: |||||
[M:3/4] [Ec]2 [EG]2 z2 |[M:1/4] [EG]2 |[M:4/4] d2 d>d [^Fd]2 [Fd]2 | d2 G2 z2 G>G | %22
w: ||||
 [Ge]3 [Ge] [Ec]2 [Ec]2 | c2 A2 z4 | G4 d4 |[M:3/4] [Ec]6 |] %26
w: ||||
V:2
 [C,G,]2 [C,A,]2 [C,G,]2 [C,C]2 | [C,C]>[C,C] [C,C]>[C,C] [C,C]2 [C,G,]2 | %2
 [B,,G,]2 [C,G,]2 [G,,G,]2 [F,G,B,]2 | [E,G,C]2 [G,B,D]2 [C,G,C]4 | %4
 [F,CF]2 [F,CF]2 [F,A,F]2 [F,CF]2 | [C,C]>[C,C] [C,C]>[C,C] [C,C]2 [E,C]2 | %6
 [D,D]2 [D,B,D]2 [D,C]2 [D,CD]2 |[M:3/4] [G,B,D]6 |[M:1/4] G,2 | %9
[M:4/4] [C,G,]2 [C,G,]>[C,G,] [C,G,]2 [C,^F,]2 | [C,G,]2 [C,C]2 z2 [C,C]2 | %11
 [G,B,F]2 [G,B,F]>[G,B,F][K:bass] [D,A,]2 [D,C]2 | [G,B,G]2 [G,B,]2 z2 [G,B,F]>[G,B,F] | %13
 [C,G,]3 [C,G,] [C,G,]2 [E,C]2 | [F,C]2 [F,CF]2 [F,B,F]2 [F,CF]2 | [D,C]4 [D,C]4 | %16
 [G,B,F]6 [G,F]2 | [C,G,]2 [C,G,]>[C,G,] [C,A,]2 [C,^F,]2 |[M:3/4] [C,G,]2 [C,C]2 z2 | %19
[M:1/4] [C,C]2 |[M:4/4][K:treble] [G,B,F]2 [G,B,F]>[G,B,F][K:bass] [D,A,]2 [D,C]2 | %21
 [G,B,G]2 [G,B,]2 z2 [G,B,F]>[G,B,F] | [C,C]3 [C,C] [C,_B,]2 [C,B,]2 | [F,A,F]2 [^F,C_E]2 z4 | %24
 [G,B,F]4 [G,B,F]4 |[M:3/4][K:bass] [C,C]6 |] %26

